X: 49
T: Sydvest
O: Danmark
R: jig
Z: 2006 John Chambers <jc:trillian.mit.edu>
M: 6/8
L: 1/8
K: D
A \
| d2d f>ed | c2c c2B/c/ | e2e gec | dAF DFA \
| d2d f>ed | c2c c2B/c/ | e2e gcc | d3  d3 ||
[|g2g  bag | f3 d3 | e>ee AAA | d2f a>aa \
| g>gg bag | f3 d3 | efg A>Bc | d3  d2 |]
